X: 10
T: Song of the Return of the Young Men
C: Teton Sioux band 1911-1914
N: Derived from sioux010.krn
O: South Dakota, U.S.A.
N: Teton Sioux Music by Frances Densmore, 1918
Z: transcribed to **kern format by Craig Sapp
L: 1/8
M: 3/4
Q: 1/4=58
K: E clef=bass
%%linebreak <none>
E2E2E E ||  
[M:2/4](3E B, B, B, E | 
(3E B, B, B, B, | 
B,2E/ E3/ | 
(3E B, B, B, B, | 
B,4 | 
B,4 | 
B, B, B, A, | 
G, C C B, | 
G, C C B, ||  
[M:3/4]B,6 :|]  



